X:1
T:A Punch In The Dark
R:reel
M:4/4
L:1/8
K:Bdor
|:~B2Bd cBdc|BdcA FEFB|dcBd cBdB|caag afec|
|~B2Bd cBdc|BdcA EFAF|DE~E2 ABcA|1 caag afec:|2 caag aece|]
|~a2ag aece|acea gbbg|~a2ag aece|dcBd cAcd|
|eaag aece|acea gbbg|~a2ag aece|dcBd cAcd|
|eaag aece|acea gbbg|~a2ag aece|dcBd cAcd|
|eaag aece|acea gbbg|~a2ag aece|dcBd cBdc|